Newaita-dark/apps/64/ruby.svg

<svg height="64pt" viewBox="0 0 64 64" width="64pt" xmlns="http://www.w3.org/2000/svg" xmlns:xlink="http://www.w3.org/1999/xlink"><linearGradient id="a"><stop offset="0" stop-opacity=".313725"/><stop offset=".222222" stop-opacity=".27451"/><stop offset="1" stop-opacity="0"/></linearGradient><radialGradient id="b" cx="450.90894" cy="189.57936" gradientTransform="matrix(.00000026 -.156265 -.210958 -.0000002 71.25004 127.264167)" gradientUnits="userSpaceOnUse" r="21.166656" xlink:href="#a"/><radialGradient id="c" cx="450.90894" cy="189.57936" gradientTransform="matrix(-.00000026 .156265 .210958 .0000002 -7.74398 -14.981459)" gradientUnits="userSpaceOnUse" r="21.166656" xlink:href="#a"/><radialGradient id="d" cx="450.90894" cy="189.57936" gradientTransform="matrix(-.00000026 -.156265 .210958 -.0000002 -7.74398 127.264167)" gradientUnits="userSpaceOnUse" r="21.166656" xlink:href="#a"/><radialGradient id="e" cx="450.90894" cy="189.57936" gradientTransform="matrix(.00000026 .156265 -.210958 .0000002 71.250038 -14.98146)" gradientUnits="userSpaceOnUse" r="21.166656" xlink:href="#a"/><linearGradient id="f"><stop offset="0" stop-color="#e57373"/><stop offset="1" stop-color="#ef9a9a"/></linearGradient><linearGradient id="g" gradientUnits="userSpaceOnUse" x1="15.876528" x2="15.876528" xlink:href="#f" y1="56.06789909502" y2="5.79222477969"/><linearGradient id="h"><stop offset="0" stop-color="#ef5350"/><stop offset="1" stop-color="#e57373"/></linearGradient><linearGradient id="i" gradientUnits="userSpaceOnUse" x1="26.46088" x2="26.46088" xlink:href="#h" y1="56.06789909502" y2="5.79222477969"/><linearGradient id="j"><stop offset="0" stop-color="#f44336"/><stop offset="1" stop-color="#ef5350"/></linearGradient><linearGradient id="k" gradientUnits="userSpaceOnUse" x1="31.753056" x2="31.753056" xlink:href="#j" y1="56.06789909502" y2="5.79222444893"/><linearGradient id="l" gradientUnits="userSpaceOnUse" x1="42.337408" x2="42.337408" xlink:href="#h" y1="56.06789909502" y2="5.79222477969"/><linearGradient id="m" gradientUnits="userSpaceOnUse" x1="50.275672" x2="50.275672" xlink:href="#f" y1="56.06789909502" y2="5.79222477969"/><linearGradient id="n" gradientUnits="userSpaceOnUse" x1="13.23044" x2="13.23044" xlink:href="#j" y1="56.06789909502" y2="5.79222477969"/><linearGradient id="o" gradientUnits="userSpaceOnUse" x1="31.753056" x2="31.753056" xlink:href="#h" y1="56.06789909502" y2="5.79222444893"/><linearGradient id="p" gradientUnits="userSpaceOnUse" x1="44.983496" x2="44.983496" xlink:href="#j" y1="56.06789909502" y2="5.79222477969"/><path d="m31.753906 56.140625h3.96875v-2.644531h-3.96875zm0 0" fill="url(#b)"/><path d="m31.753906 56.140625h-3.96875v2.648437h3.96875zm0 0" fill="url(#c)"/><path d="m31.753906 56.140625h-3.96875v-2.644531h3.96875zm0 0" fill="url(#d)"/><path d="m31.753906 56.140625h3.96875v2.648437h-3.96875zm0 0" fill="url(#e)"/><path d="m14.453125 6.449219c-.292969.253906-.539063.578125-.699219.953125l-7.9375 18.519531c-.144531.335937-.210937.6875-.210937 1.039063h16.457031zm0 0" fill="url(#g)"/><path d="m31.726562 5.804688h-15.550781c-.644531 0-1.25.238281-1.722656.644531l7.601563 20.488281zm0 0" fill="url(#i)"/><path d="m31.726562 5.804688-9.671874 21.132812.007812.023438h19.390625l-9.675781-21.15625zm0 0" fill="url(#k)"/><path d="m49.636719 6.4375c-.46875-.398438-1.066407-.632812-1.707031-.632812h-16.152344l9.675781 21.15625h.082031zm0 0" fill="url(#l)"/><path d="m49.636719 6.4375-8.101563 20.523438h16.964844c0-.351563-.070312-.703126-.210938-1.039063l-7.941406-18.519531c-.160156-.382813-.410156-.707032-.710937-.964844zm0 0" fill="url(#m)"/><path d="m22.050781 26.960938h-16.746093c0 .640624.234374 1.269531.675781 1.761718l23.816406 26.460938c.519531.578125 1.234375.871094 1.953125.871094zm0 0" fill="url(#n)"/><path d="m22.050781 26.960938 9.699219 29.09375h.007812l9.699219-29.09375zm0 0" fill="url(#o)"/><path d="m41.457031 26.960938-9.699219 29.09375c.714844 0 1.429688-.292969 1.953126-.871094l23.8125-26.460938c.445312-.492187.679687-1.121094.679687-1.761718zm0 0" fill="url(#p)"/><path d="m16.175781 5.804688c-.644531 0-1.25.238281-1.722656.644531-.292969.253906-.539063.578125-.699219.953125l-7.9375 18.519531c-.144531.335937-.210937.6875-.210937 1.039063h-.300781c0 .222656.027343.441406.082031.65625h.21875c0-.351563.066406-.703126.210937-1.039063l7.9375-18.523437c.160156-.375.40625-.695313.699219-.953126.472656-.402343 1.078125-.640624 1.722656-.640624h31.753907c.640624 0 1.238281.234374 1.707031.632812.300781.257812.550781.582031.710937.960938l7.941406 18.523437c.050782.125.09375.253906.128907.382813h.082031c0-.351563-.070312-.703126-.210938-1.039063l-7.941406-18.519531c-.160156-.382813-.410156-.707032-.710937-.964844-.46875-.398438-1.066407-.632812-1.707031-.632812zm0 0" fill="#fff" fill-opacity=".392157"/><path d="m5.304688 26.960938c0 .640624.234374 1.269531.675781 1.761718l23.816406 26.460938c.519531.578125 1.234375.871094 1.953125.871094h.007812c.714844 0 1.429688-.292969 1.953126-.871094l23.8125-26.460938c.445312-.492187.679687-1.121094.679687-1.761718h-.136719c-.113281.335937-.296875.652343-.542968.925781l-23.8125 26.460937c-.523438.578125-1.238282.871094-1.953126.871094-.003906 0-.007812 0-.007812 0-.71875-.003906-1.433594-.292969-1.953125-.871094l-23.816406-26.460937c-.246094-.273438-.425781-.589844-.539063-.925781zm0 0" fill-opacity=".235294"/><path d="m16.175781 5.617188c-.691406 0-1.335937.253906-1.839843.683593 0 .003907-.003907.003907-.003907.003907-.316406.273437-.578125.621093-.75 1.023437l-7.9375 18.523437c-.128906.296876-.203125.609376-.222656.921876h-.117187c-.105469 0-.1875.082031-.1875.1875 0 .683593.25 1.359374.722656 1.886718l23.816406 26.460938c.558594.621094 1.324219.933594 2.089844.933594h.011718c.765626 0 1.535157-.3125 2.09375-.933594l23.8125-26.460938c.433594-.480468.675782-1.082031.71875-1.699218h.117188c.105469 0 .1875-.082032.1875-.1875 0-.375-.074219-.753907-.226562-1.109376l-7.9375-18.523437c-.175782-.410156-.441407-.757813-.765626-1.03125-.5-.429687-1.144531-.679687-1.828124-.679687zm0 .375h15.257813l-5.898438 12.890624-3.464844 7.566407-7.390624-19.9375c.417968-.328125.941406-.519531 1.496093-.519531zm15.894531 0h15.859376c.546874 0 1.0625.1875 1.480468.507812l-.128906.332031-7.796875 19.746094zm-.316406.207031 9.40625 20.574219h-18.824218l.925781-2.023438zm17.957032.566406c.191406.203125.351562.441406.464843.710937l7.9375 18.519532c.109375.253906.171875.515625.191407.777344h-16.492188zm-35.332032.015625 7.414063 19.992188h-15.992188c.019531-.261719.082031-.523438.1875-.777344l7.9375-18.519532c.113281-.261718.265625-.496093.453125-.695312zm-8.878906 20.367188h16.414062l4.773438 14.320312 4.796875 14.382812c-.574219-.0625-1.128906-.324218-1.550781-.792968l-23.8125-26.460938c-.371094-.410156-.578125-.921875-.621094-1.449218zm16.8125 0h18.882812l-9.441406 28.328124zm19.277344 0h16.414062c-.039062.527343-.25 1.039062-.617187 1.449218l-23.816407 26.460938c-.421874.46875-.972656.730468-1.546874.792968zm0 0" fill="#212121"/></svg>

<?xml version="1.0" encoding="UTF-8"?>
<svg xmlns="http://www.w3.org/2000/svg" xmlns:xlink="http://www.w3.org/1999/xlink" width="64pt" height="64pt" viewBox="0 0 64 64" version="1.1">
<defs>
<radialGradient id="radial0" gradientUnits="userSpaceOnUse" cx="450.90894" cy="189.57936" fx="450.90894" fy="189.57936" r="21.166656" gradientTransform="matrix(0.000000261256,-0.156265,-0.210958,-0.000000203077,71.25004,127.264167)">
<stop offset="0" style="stop-color:rgb(0%,0%,0%);stop-opacity:0.313725;"/>
<stop offset="0.222222" style="stop-color:rgb(0%,0%,0%);stop-opacity:0.27451;"/>
<stop offset="1" style="stop-color:rgb(0%,0%,0%);stop-opacity:0;"/>
</radialGradient>
<radialGradient id="radial1" gradientUnits="userSpaceOnUse" cx="450.90894" cy="189.57936" fx="450.90894" fy="189.57936" r="21.166656" gradientTransform="matrix(-0.000000261256,0.156265,0.210958,0.000000203077,-7.74398,-14.981459)">
<stop offset="0" style="stop-color:rgb(0%,0%,0%);stop-opacity:0.313725;"/>
<stop offset="0.222222" style="stop-color:rgb(0%,0%,0%);stop-opacity:0.27451;"/>
<stop offset="1" style="stop-color:rgb(0%,0%,0%);stop-opacity:0;"/>
</radialGradient>
<radialGradient id="radial2" gradientUnits="userSpaceOnUse" cx="450.90894" cy="189.57936" fx="450.90894" fy="189.57936" r="21.166656" gradientTransform="matrix(-0.000000261256,-0.156265,0.210958,-0.000000203077,-7.74398,127.264167)">
<stop offset="0" style="stop-color:rgb(0%,0%,0%);stop-opacity:0.313725;"/>
<stop offset="0.222222" style="stop-color:rgb(0%,0%,0%);stop-opacity:0.27451;"/>
<stop offset="1" style="stop-color:rgb(0%,0%,0%);stop-opacity:0;"/>
</radialGradient>
<radialGradient id="radial3" gradientUnits="userSpaceOnUse" cx="450.90894" cy="189.57936" fx="450.90894" fy="189.57936" r="21.166656" gradientTransform="matrix(0.000000261256,0.156265,-0.210958,0.000000203077,71.250038,-14.98146)">
<stop offset="0" style="stop-color:rgb(0%,0%,0%);stop-opacity:0.313725;"/>
<stop offset="0.222222" style="stop-color:rgb(0%,0%,0%);stop-opacity:0.27451;"/>
<stop offset="1" style="stop-color:rgb(0%,0%,0%);stop-opacity:0;"/>
</radialGradient>
<linearGradient id="linear0" gradientUnits="userSpaceOnUse" x1="480" y1="1695.1182" x2="480" y2="175.11813" gradientTransform="matrix(0.0330761,0,0,0.0330761,0,0)">
<stop offset="0" style="stop-color:rgb(89.803922%,45.098039%,45.098039%);stop-opacity:1;"/>
<stop offset="1" style="stop-color:rgb(93.72549%,60.392157%,60.392157%);stop-opacity:1;"/>
</linearGradient>
<linearGradient id="linear1" gradientUnits="userSpaceOnUse" x1="800" y1="1695.1182" x2="800" y2="175.11813" gradientTransform="matrix(0.0330761,0,0,0.0330761,0,0)">
<stop offset="0" style="stop-color:rgb(93.72549%,32.54902%,31.372549%);stop-opacity:1;"/>
<stop offset="1" style="stop-color:rgb(89.803922%,45.098039%,45.098039%);stop-opacity:1;"/>
</linearGradient>
<linearGradient id="linear2" gradientUnits="userSpaceOnUse" x1="960" y1="1695.1182" x2="960" y2="175.11812" gradientTransform="matrix(0.0330761,0,0,0.0330761,0,0)">
<stop offset="0" style="stop-color:rgb(95.686275%,26.27451%,21.176471%);stop-opacity:1;"/>
<stop offset="1" style="stop-color:rgb(93.72549%,32.54902%,31.372549%);stop-opacity:1;"/>
</linearGradient>
<linearGradient id="linear3" gradientUnits="userSpaceOnUse" x1="1280" y1="1695.1182" x2="1280" y2="175.11813" gradientTransform="matrix(0.0330761,0,0,0.0330761,0,0)">
<stop offset="0" style="stop-color:rgb(93.72549%,32.54902%,31.372549%);stop-opacity:1;"/>
<stop offset="1" style="stop-color:rgb(89.803922%,45.098039%,45.098039%);stop-opacity:1;"/>
</linearGradient>
<linearGradient id="linear4" gradientUnits="userSpaceOnUse" x1="1520" y1="1695.1182" x2="1520" y2="175.11813" gradientTransform="matrix(0.0330761,0,0,0.0330761,0,0)">
<stop offset="0" style="stop-color:rgb(89.803922%,45.098039%,45.098039%);stop-opacity:1;"/>
<stop offset="1" style="stop-color:rgb(93.72549%,60.392157%,60.392157%);stop-opacity:1;"/>
</linearGradient>
<linearGradient id="linear5" gradientUnits="userSpaceOnUse" x1="400" y1="1695.1182" x2="400" y2="175.11813" gradientTransform="matrix(0.0330761,0,0,0.0330761,0,0)">
<stop offset="0" style="stop-color:rgb(95.686275%,26.27451%,21.176471%);stop-opacity:1;"/>
<stop offset="1" style="stop-color:rgb(93.72549%,32.54902%,31.372549%);stop-opacity:1;"/>
</linearGradient>
<linearGradient id="linear6" gradientUnits="userSpaceOnUse" x1="960" y1="1695.1182" x2="960" y2="175.11812" gradientTransform="matrix(0.0330761,0,0,0.0330761,0,0)">
<stop offset="0" style="stop-color:rgb(93.72549%,32.54902%,31.372549%);stop-opacity:1;"/>
<stop offset="1" style="stop-color:rgb(89.803922%,45.098039%,45.098039%);stop-opacity:1;"/>
</linearGradient>
<linearGradient id="linear7" gradientUnits="userSpaceOnUse" x1="1360" y1="1695.1182" x2="1360" y2="175.11813" gradientTransform="matrix(0.0330761,0,0,0.0330761,0,0)">
<stop offset="0" style="stop-color:rgb(95.686275%,26.27451%,21.176471%);stop-opacity:1;"/>
<stop offset="1" style="stop-color:rgb(93.72549%,32.54902%,31.372549%);stop-opacity:1;"/>
</linearGradient>
</defs>
<g id="surface1">
<path style=" stroke:none;fill-rule:nonzero;fill:url(#radial0);" d="M 31.753906 56.140625 L 35.722656 56.140625 L 35.722656 53.496094 L 31.753906 53.496094 Z M 31.753906 56.140625 "/>
<path style=" stroke:none;fill-rule:nonzero;fill:url(#radial1);" d="M 31.753906 56.140625 L 27.785156 56.140625 L 27.785156 58.789062 L 31.753906 58.789062 Z M 31.753906 56.140625 "/>
<path style=" stroke:none;fill-rule:nonzero;fill:url(#radial2);" d="M 31.753906 56.140625 L 27.785156 56.140625 L 27.785156 53.496094 L 31.753906 53.496094 Z M 31.753906 56.140625 "/>
<path style=" stroke:none;fill-rule:nonzero;fill:url(#radial3);" d="M 31.753906 56.140625 L 35.722656 56.140625 L 35.722656 58.789062 L 31.753906 58.789062 Z M 31.753906 56.140625 "/>
<path style=" stroke:none;fill-rule:nonzero;fill:url(#linear0);" d="M 14.453125 6.449219 C 14.160156 6.703125 13.914062 7.027344 13.753906 7.402344 L 5.816406 25.921875 C 5.671875 26.257812 5.605469 26.609375 5.605469 26.960938 L 22.0625 26.960938 Z M 14.453125 6.449219 "/>
<path style=" stroke:none;fill-rule:nonzero;fill:url(#linear1);" d="M 31.726562 5.804688 L 16.175781 5.804688 C 15.53125 5.804688 14.925781 6.042969 14.453125 6.449219 L 22.054688 26.9375 Z M 31.726562 5.804688 "/>
<path style=" stroke:none;fill-rule:nonzero;fill:url(#linear2);" d="M 31.726562 5.804688 L 22.054688 26.9375 L 22.0625 26.960938 L 41.453125 26.960938 L 31.777344 5.804688 Z M 31.726562 5.804688 "/>
<path style=" stroke:none;fill-rule:nonzero;fill:url(#linear3);" d="M 49.636719 6.4375 C 49.167969 6.039062 48.570312 5.804688 47.929688 5.804688 L 31.777344 5.804688 L 41.453125 26.960938 L 41.535156 26.960938 Z M 49.636719 6.4375 "/>
<path style=" stroke:none;fill-rule:nonzero;fill:url(#linear4);" d="M 49.636719 6.4375 L 41.535156 26.960938 L 58.5 26.960938 C 58.5 26.609375 58.429688 26.257812 58.289062 25.921875 L 50.347656 7.402344 C 50.1875 7.019531 49.9375 6.695312 49.636719 6.4375 Z M 49.636719 6.4375 "/>
<path style=" stroke:none;fill-rule:nonzero;fill:url(#linear5);" d="M 22.050781 26.960938 L 5.304688 26.960938 C 5.304688 27.601562 5.539062 28.230469 5.980469 28.722656 L 29.796875 55.183594 C 30.316406 55.761719 31.03125 56.054688 31.75 56.054688 Z M 22.050781 26.960938 "/>
<path style=" stroke:none;fill-rule:nonzero;fill:url(#linear6);" d="M 22.050781 26.960938 L 31.75 56.054688 C 31.75 56.054688 31.753906 56.054688 31.757812 56.054688 L 41.457031 26.960938 Z M 22.050781 26.960938 "/>
<path style=" stroke:none;fill-rule:nonzero;fill:url(#linear7);" d="M 41.457031 26.960938 L 31.757812 56.054688 C 32.472656 56.054688 33.1875 55.761719 33.710938 55.183594 L 57.523438 28.722656 C 57.96875 28.230469 58.203125 27.601562 58.203125 26.960938 Z M 41.457031 26.960938 "/>
<path style=" stroke:none;fill-rule:nonzero;fill:rgb(100%,100%,100%);fill-opacity:0.392157;" d="M 16.175781 5.804688 C 15.53125 5.804688 14.925781 6.042969 14.453125 6.449219 C 14.160156 6.703125 13.914062 7.027344 13.753906 7.402344 L 5.816406 25.921875 C 5.671875 26.257812 5.605469 26.609375 5.605469 26.960938 L 5.304688 26.960938 C 5.304688 27.183594 5.332031 27.402344 5.386719 27.617188 L 5.605469 27.617188 C 5.605469 27.265625 5.671875 26.914062 5.816406 26.578125 L 13.753906 8.054688 C 13.914062 7.679688 14.160156 7.359375 14.453125 7.101562 C 14.925781 6.699219 15.53125 6.460938 16.175781 6.460938 L 47.929688 6.460938 C 48.570312 6.460938 49.167969 6.695312 49.636719 7.09375 C 49.9375 7.351562 50.1875 7.675781 50.347656 8.054688 L 58.289062 26.578125 C 58.339844 26.703125 58.382812 26.832031 58.417969 26.960938 L 58.5 26.960938 C 58.5 26.609375 58.429688 26.257812 58.289062 25.921875 L 50.347656 7.402344 C 50.1875 7.019531 49.9375 6.695312 49.636719 6.4375 C 49.167969 6.039062 48.570312 5.804688 47.929688 5.804688 Z M 16.175781 5.804688 "/>
<path style=" stroke:none;fill-rule:nonzero;fill:rgb(0%,0%,0%);fill-opacity:0.235294;" d="M 5.304688 26.960938 C 5.304688 27.601562 5.539062 28.230469 5.980469 28.722656 L 29.796875 55.183594 C 30.316406 55.761719 31.03125 56.054688 31.75 56.054688 C 31.75 56.054688 31.753906 56.054688 31.757812 56.054688 C 32.472656 56.054688 33.1875 55.761719 33.710938 55.183594 L 57.523438 28.722656 C 57.96875 28.230469 58.203125 27.601562 58.203125 26.960938 L 58.066406 26.960938 C 57.953125 27.296875 57.769531 27.613281 57.523438 27.886719 L 33.710938 54.347656 C 33.1875 54.925781 32.472656 55.21875 31.757812 55.21875 C 31.753906 55.21875 31.75 55.21875 31.75 55.21875 C 31.03125 55.214844 30.316406 54.925781 29.796875 54.347656 L 5.980469 27.886719 C 5.734375 27.613281 5.554688 27.296875 5.441406 26.960938 Z M 5.304688 26.960938 "/>
<path style=" stroke:none;fill-rule:nonzero;fill:rgb(12.941176%,12.941176%,12.941176%);fill-opacity:1;" d="M 16.175781 5.617188 C 15.484375 5.617188 14.839844 5.871094 14.335938 6.300781 C 14.335938 6.304688 14.332031 6.304688 14.332031 6.304688 C 14.015625 6.578125 13.753906 6.925781 13.582031 7.328125 L 5.644531 25.851562 C 5.515625 26.148438 5.441406 26.460938 5.421875 26.773438 L 5.304688 26.773438 C 5.199219 26.773438 5.117188 26.855469 5.117188 26.960938 C 5.117188 27.644531 5.367188 28.320312 5.839844 28.847656 L 29.65625 55.308594 C 30.214844 55.929688 30.980469 56.242188 31.746094 56.242188 C 31.734375 56.242188 31.738281 56.242188 31.757812 56.242188 C 32.523438 56.242188 33.292969 55.929688 33.851562 55.308594 L 57.664062 28.847656 C 58.097656 28.367188 58.339844 27.765625 58.382812 27.148438 L 58.5 27.148438 C 58.605469 27.148438 58.6875 27.066406 58.6875 26.960938 C 58.6875 26.585938 58.613281 26.207031 58.460938 25.851562 L 50.523438 7.328125 C 50.347656 6.917969 50.082031 6.570312 49.757812 6.296875 C 49.257812 5.867188 48.613281 5.617188 47.929688 5.617188 Z M 16.175781 5.992188 L 31.433594 5.992188 L 25.535156 18.882812 L 22.070312 26.449219 L 14.679688 6.511719 C 15.097656 6.183594 15.621094 5.992188 16.175781 5.992188 Z M 32.070312 5.992188 L 47.929688 5.992188 C 48.476562 5.992188 48.992188 6.179688 49.410156 6.5 L 49.28125 6.832031 L 41.484375 26.578125 Z M 31.753906 6.199219 L 41.160156 26.773438 L 22.335938 26.773438 L 23.261719 24.75 Z M 49.710938 6.765625 C 49.902344 6.96875 50.0625 7.207031 50.175781 7.476562 L 58.113281 25.996094 C 58.222656 26.25 58.285156 26.511719 58.304688 26.773438 L 41.8125 26.773438 Z M 14.378906 6.78125 L 21.792969 26.773438 L 5.800781 26.773438 C 5.820312 26.511719 5.882812 26.25 5.988281 25.996094 L 13.925781 7.476562 C 14.039062 7.214844 14.191406 6.980469 14.378906 6.78125 Z M 5.5 27.148438 L 21.914062 27.148438 L 26.6875 41.46875 L 31.484375 55.851562 C 30.910156 55.789062 30.355469 55.527344 29.933594 55.058594 L 6.121094 28.597656 C 5.75 28.1875 5.542969 27.675781 5.5 27.148438 Z M 22.3125 27.148438 L 41.195312 27.148438 L 31.753906 55.476562 Z M 41.589844 27.148438 L 58.003906 27.148438 C 57.964844 27.675781 57.753906 28.1875 57.386719 28.597656 L 33.570312 55.058594 C 33.148438 55.527344 32.597656 55.789062 32.023438 55.851562 Z M 41.589844 27.148438 "/>
</g>
</svg>
